X:115
T: Jerman Weizers Frau
N: Q0108
O: Mitteleuropa, Deutschland (Text: Bayern, Nuernberg)
N: Geistliche Kontrafaktur? Tonangabe des Sterbelieds zu dieser
N: Ballade. Takteinteilung gemaess der Vorgabe (Dreier) selbst
N: durchgefuehrt.
R: Ballade, Schein - Tod, Geburt, Grab, Auferstehen; geistlich,
M: 3/2
L: 1/2
K: G
G | G2D | G2A | _BcA | G2
G | _B2c | d2c | _B2A | G2
G | G2D | G2A | _BcA | G2
G | _B2c | d2c | _B2A | G2
G | d2c | =f2e | d2^c | d2
d | d2c | A2_B | G2A | D2
D | =F2G | A2c | _BGA | G2

